X:45
T:Les filles de Couya
R:Rond Saint-Vincent
C:trad.
A:Bretagne
O:France
M:12/8
L:1/8
Q:1/4=190
K:G
G2AG2FE2FG3|G2AG2FE2FG3|G2AG2FE2FG3|
G2AG2FE2FG3|G2AG2FE2FG3|G2AG2FE2FG2A|
A2AA2AB3A3|G2Ac2BA2GF2G|A2Ac2BA3G2A|
A2AA2AB3A3|G2Ac2BA2GF2G|A2Ac2BA3G3||
W:
W:1ere partie (bis) :
W:Y'a cor 10 filles  Couya
W:Qu'ont coup la queue d'leur chat
W:Qu'ont coup la queue d'leur chat
W:
W:2eme partie (bis) :
W:Les ont mis sur le grill
W:On fait croire  leur mari
W:Que c'tait des anguilles
W:
